svgs/duotone/sensor-fire.svg

<svg xmlns="http://www.w3.org/2000/svg" viewBox="0 0 640 512"><!--! Font Awesome Pro 6.4.0 by @fontawesome - https://fontawesome.com License - https://fontawesome.com/license (Commercial License) Copyright 2023 Fonticons, Inc. --><defs><style>.fa-secondary{opacity:.4}</style></defs><path class="fa-primary" d="M433.8 163.6c5.6-5 14.2-5 19.8 0c19.7 17.8 38.2 37 55.5 57.7c7.9-9.9 16.8-20.7 26.5-29.5c5.6-5.1 14.4-5.1 20 0c24.7 22.7 45.6 52.7 60.4 81.1c14.5 28 24.2 56.7 24.2 76.9c0 87.8-71.3 161.9-160 161.9c-89.7 0-160-74.2-160-161.9c0-26.4 12.7-58.6 32.4-90.6c20-32.4 48.1-66.1 81.4-95.8zM481 447.9c18 0 34-5 49-15c30-21 38-63 20-96c-2-4-4-8-7-12l-36 42s-58-74-62-79c-30 37-45 58-45 82c0 49 36 78 81 78z"/><path class="fa-secondary" d="M0 96C0 60.7 28.7 32 64 32H384c35.3 0 64 28.7 64 64v32.2c-12.6-1.2-25.5 2.7-35.5 11.7c-35.4 31.6-65.6 67.7-87.3 102.8C304.3 276.5 288 314.9 288 350.1c0 49.3 18.6 95.2 49.6 129.9H64c-35.3 0-64-28.7-64-64V96zm88 0c-13.3 0-24 10.7-24 24V264c0 13.3 10.7 24 24 24s24-10.7 24-24V120c0-13.3-10.7-24-24-24zm96 0c-13.3 0-24 10.7-24 24V264c0 13.3 10.7 24 24 24s24-10.7 24-24V120c0-13.3-10.7-24-24-24z"/></svg>

<svg xmlns="http://www.w3.org/2000/svg" viewBox="0 0 640 512"><!--! Font Awesome Pro 6.3.0 by @fontawesome - https://fontawesome.com License - https://fontawesome.com/license (Commercial License) Copyright 2023 Fonticons, Inc. --><defs><style>.fa-secondary{opacity:.4}</style></defs><path class="fa-primary" d="M433.8 163.6C439.4 158.6 447.1 158.6 453.5 163.6C473.3 181.4 491.8 200.6 509 221.3C516.9 211.5 525.8 200.6 535.5 191.8C541.1 186.7 549.9 186.7 555.5 191.9C580.2 214.6 601.1 244.5 615.8 273C630.4 301.1 640 329.8 640 349.9C640 437.8 568.7 511.9 480 511.9C390.3 511.9 320 437.7 320 349.9C320 323.5 332.7 291.3 352.4 259.4C372.4 227 400.5 193.3 433.8 163.6V163.6zM480.1 447.9C499 447.9 515 442.9 530 432.9C560 411.9 568 369.9 550 336.9C548 332.9 546 328.9 543 324.9L507 366.9C507 366.9 448.1 292.9 444.1 287.9C415 324.9 400 345.9 400 369.9C400 418.9 436 447.9 480.1 447.9z"/><path class="fa-secondary" d="M0 96C0 60.65 28.65 32 64 32H384C419.3 32 448 60.65 448 96V128.2C435.4 127 422.5 130.9 412.5 139.9C377.1 171.5 346.9 207.6 325.2 242.7C304.3 276.5 288 314.9 288 350.1C288 399.4 306.6 445.3 337.6 480H64C28.65 480 0 451.3 0 416V96zM64 120V264C64 277.3 74.75 288 88 288C101.3 288 112 277.3 112 264V120C112 106.7 101.3 96 88 96C74.75 96 64 106.7 64 120zM160 120V264C160 277.3 170.7 288 184 288C197.3 288 208 277.3 208 264V120C208 106.7 197.3 96 184 96C170.7 96 160 106.7 160 120z"/></svg>
